img/toolbar/func_stab_map_2d.svg

<svg height="24" width="24" xmlns="http://www.w3.org/2000/svg">
  <path d="m8.0511183 26.971242c-1.2555911-8.386581-4.1022365-10-11.460064-10.335463l.4089457-2.124597h28v-4.511182c-8-1-10.693291-3.5111821-11.693291-13.5111821l-3.8178911.5111821v30z" fill="#c9d4f3" fill-rule="evenodd"/>
  <g fill="none">
    <path d="m13.511182-3.715655c1 10 4.204473 12.9201278 12.920128 13.971246m-18.0734826 17.533542c-.4376996-11.760383-6.5047923-10.920128-11.971246-11.255591" stroke="#4d0808"/>
    <g stroke="#182e6d" transform="translate(-11.554313 -.196486)">
      <path d="m11.554313 14.696486h23"/>
      <path d="m31.554313 12.196486 3 2.5-3 2.5" stroke-linecap="round"/>
    </g>
    <g stroke="#182e6d" transform="matrix(0 -1 1 0 -5.196486 35.554313)">
      <path d="m11.554313 14.696486h23"/>
      <path d="m31.554313 12.196486 3 2.5-3 2.5" stroke-linecap="round"/>
    </g>
  </g>
</svg>

<?xml version="1.0" encoding="UTF-8" standalone="no"?>
<!-- Created with Inkscape (http://www.inkscape.org/) -->
<svg
   xmlns:dc="http://purl.org/dc/elements/1.1/"
   xmlns:cc="http://creativecommons.org/ns#"
   xmlns:rdf="http://www.w3.org/1999/02/22-rdf-syntax-ns#"
   xmlns:svg="http://www.w3.org/2000/svg"
   xmlns="http://www.w3.org/2000/svg"
   xmlns:sodipodi="http://sodipodi.sourceforge.net/DTD/sodipodi-0.dtd"
   xmlns:inkscape="http://www.inkscape.org/namespaces/inkscape"
   width="24"
   height="24"
   id="svg2742"
   sodipodi:version="0.32"
   inkscape:version="0.46"
   version="1.0"
   sodipodi:docname="stab_map_2d.svg"
   inkscape:output_extension="org.inkscape.output.svg.inkscape"
   inkscape:export-filename="D:\Projects\rezonator 1.5\img\func_stabmap_2d.png"
   inkscape:export-xdpi="90"
   inkscape:export-ydpi="90">
  <defs
     id="defs2744">
    <inkscape:perspective
       sodipodi:type="inkscape:persp3d"
       inkscape:vp_x="0 : 526.18109 : 1"
       inkscape:vp_y="0 : 1000 : 0"
       inkscape:vp_z="744.09448 : 526.18109 : 1"
       inkscape:persp3d-origin="372.04724 : 350.78739 : 1"
       id="perspective2750" />
  </defs>
  <sodipodi:namedview
     id="base"
     pagecolor="#ffffff"
     bordercolor="#666666"
     borderopacity="1.0"
     gridtolerance="10000"
     guidetolerance="10"
     objecttolerance="10"
     inkscape:pageopacity="0.0"
     inkscape:pageshadow="2"
     inkscape:zoom="19.5625"
     inkscape:cx="13.393893"
     inkscape:cy="10.424095"
     inkscape:document-units="px"
     inkscape:current-layer="layer1"
     showgrid="true"
     inkscape:window-width="1920"
     inkscape:window-height="1144"
     inkscape:window-x="-4"
     inkscape:window-y="-4"
     inkscape:snap-global="false">
    <inkscape:grid
       type="xygrid"
       id="grid2752"
       visible="true"
       enabled="true" />
  </sodipodi:namedview>
  <metadata
     id="metadata2747">
    <rdf:RDF>
      <cc:Work
         rdf:about="">
        <dc:format>image/svg+xml</dc:format>
        <dc:type
           rdf:resource="http://purl.org/dc/dcmitype/StillImage" />
      </cc:Work>
    </rdf:RDF>
  </metadata>
  <g
     inkscape:label="Layer 1"
     inkscape:groupmode="layer"
     id="layer1">
    <path
       id="path6416"
       style="fill:#c9d4f3;fill-rule:evenodd;stroke:none;stroke-width:1px;stroke-linecap:butt;stroke-linejoin:miter;stroke-opacity:1;fill-opacity:1"
       d="M 8.0511183,26.971242 C 6.7955272,18.584661 3.9488818,16.971242 -3.4089457,16.635779 L -3,14.511182 L 25,14.511182 L 25,10 C 17,9 14.306709,6.4888179 13.306709,-3.5111821 L 9.4888179,-3 L 9.4888179,27 L 8.0511183,26.971242 z"
       sodipodi:nodetypes="ccccccccc" />
    <path
       id="path6929"
       style="fill:none;fill-rule:evenodd;stroke:#4d0808;stroke-width:1px;stroke-linecap:butt;stroke-linejoin:miter;stroke-opacity:1"
       d="M 13.511182,-3.715655 C 14.511182,6.284345 17.715655,9.2044728 26.43131,10.255591M 8.3578274,27.789133 C 7.9201278,16.02875 1.8530351,16.869005 -3.6134186,16.533542" />
    <g
       id="g6967"
       transform="translate(-11.554313,-0.196486)">
      <path
         sodipodi:nodetypes="cc"
         id="path5856"
         d="M 11.554313,14.696486 L 34.554313,14.696486"
         style="fill:none;fill-rule:evenodd;stroke:#182e6d;stroke-width:1px;stroke-linecap:butt;stroke-linejoin:miter;stroke-opacity:1" />
      <path
         sodipodi:nodetypes="ccc"
         id="path6369"
         d="M 31.554313,12.196486 L 34.554313,14.696486 L 31.554313,17.196486"
         style="fill:none;fill-rule:evenodd;stroke:#182e6d;stroke-width:1px;stroke-linecap:round;stroke-linejoin:miter;stroke-opacity:1" />
    </g>
    <g
       transform="matrix(0,-1,1,0,-5.196486,35.554313)"
       id="g6971">
      <path
         style="fill:none;fill-rule:evenodd;stroke:#182e6d;stroke-width:1px;stroke-linecap:butt;stroke-linejoin:miter;stroke-opacity:1"
         d="M 11.554313,14.696486 L 34.554313,14.696486"
         id="path6973"
         sodipodi:nodetypes="cc" />
      <path
         style="fill:none;fill-rule:evenodd;stroke:#182e6d;stroke-width:1px;stroke-linecap:round;stroke-linejoin:miter;stroke-opacity:1"
         d="M 31.554313,12.196486 L 34.554313,14.696486 L 31.554313,17.196486"
         id="path6975"
         sodipodi:nodetypes="ccc" />
    </g>
  </g>
</svg>
